src/assets/tokens/Horiza.svg

<svg width="1400" height="341" viewBox="0 0 1400 341" fill="none" xmlns="http://www.w3.org/2000/svg">
<path d="M561.514 154.44C562.221 160.209 562.602 166.033 562.548 171.911C562.33 207.832 548.125 241.522 522.544 266.721C496.964 291.975 463.111 305.745 427.19 305.473C421.094 305.418 415.162 304.928 409.284 304.112C420.822 296.003 432.687 286.968 444.661 277.171C467.411 273.633 487.875 262.966 503.55 247.509C519.17 232.106 530.055 211.969 533.92 189.382C543.989 177.626 553.241 165.924 561.514 154.44ZM479.112 35.3013C490.433 39.0567 501.155 44.3904 511.115 51.0304C525.429 48.0914 536.75 49.6154 543.499 56.5275C552.425 65.5622 551.935 82.3799 544.152 103.334C538.546 93.755 531.852 84.6658 523.851 76.5563C498.597 50.976 464.962 36.7708 429.041 36.5531C393.119 36.3354 359.266 50.1052 333.686 75.3045C308.105 100.558 293.9 134.194 293.683 170.115C293.356 218.881 319.208 261.769 358.014 285.607C338.04 292.356 322.093 292.193 313.494 283.539C307.126 277.062 305.493 266.612 307.942 253.55C301.193 243.481 295.805 232.433 291.941 220.677C259.285 271.565 247.203 314.235 264.565 331.815C290.689 358.321 374.288 318.862 457.941 242.937C457.995 242.937 457.995 242.937 458.05 242.883C465.452 236.46 472.854 229.657 480.201 222.418C487.004 215.724 493.427 208.975 499.468 202.172C499.468 202.117 499.522 202.063 499.522 202.009C577.515 118.845 618.716 34.8658 592.373 8.19703C574.794 -9.54589 531.198 2.42788 479.112 35.3013Z" fill="white"/>
<path d="M211.01 38.0771C206.439 38.0771 202.574 39.6011 199.472 42.5401C196.37 45.5335 194.846 49.3978 194.846 54.2417V156.291H32.3292V54.2417C32.3292 49.4522 30.8052 45.5335 27.8662 42.5401C24.8727 39.5467 21.0085 38.0771 16.1646 38.0771C11.5928 38.0771 7.72855 39.6011 4.62626 42.5401C1.52397 45.5335 0 49.3978 0 54.2417V290.288C0 294.86 1.52397 298.724 4.62626 301.772C7.72855 304.874 11.5384 306.398 16.1646 306.398C20.9541 306.398 24.8727 304.874 27.8662 301.772C30.8596 298.67 32.3292 294.86 32.3292 290.288V184.81H194.846V290.288C194.846 294.86 196.37 298.724 199.472 301.772C202.574 304.874 206.384 306.398 211.01 306.398C215.8 306.398 219.718 304.874 222.712 301.772C225.705 298.67 227.175 294.86 227.175 290.288V54.2417C227.175 49.4522 225.705 45.5335 222.712 42.5401C219.664 39.5467 215.8 38.0771 211.01 38.0771Z" fill="white"/>
<path d="M740.958 194.988C743.135 194.063 745.258 193.084 747.38 191.995C760.551 185.137 770.838 175.613 778.294 163.476C785.751 151.339 789.452 137.46 789.452 121.894C789.452 105.403 785.696 90.8712 778.294 78.2444C770.838 65.6719 760.551 55.8208 747.38 48.691C734.209 41.6156 719.133 38.0234 702.206 38.0234H639.344C634.772 38.0234 630.908 39.5474 627.806 42.4864C624.703 45.4798 623.18 49.3441 623.18 54.188V290.234C623.18 294.806 624.703 298.67 627.806 301.718C630.908 304.82 634.718 306.344 639.344 306.344C644.134 306.344 648.052 304.82 651.046 301.718C654.039 298.616 655.509 294.806 655.509 290.234V202.282H702.206C704.274 202.282 706.288 202.227 708.302 202.118L768.171 298.453C770.021 301.228 772.089 303.188 774.375 304.439C776.661 305.691 779.274 306.344 782.267 306.344C789.125 306.344 793.969 303.786 796.69 298.616C799.466 293.445 798.867 287.785 794.949 281.635L740.958 194.988ZM702.206 172.075H655.509V68.3388H702.206C713.2 68.3388 722.888 70.5703 731.215 75.0332C739.543 79.4962 746.183 85.8096 750.972 93.9191C755.762 102.029 758.211 111.39 758.211 121.894C758.211 131.528 755.816 140.181 750.972 147.855C746.183 155.53 739.597 161.462 731.215 165.707C722.834 169.952 713.2 172.075 702.206 172.075Z" fill="white"/>
<path d="M861.62 38.0771C857.048 38.0771 853.184 39.6011 850.082 42.5401C846.979 45.5335 845.455 49.3978 845.455 54.2417V290.288C845.455 294.86 846.979 298.724 850.082 301.772C853.184 304.874 856.994 306.398 861.62 306.398C866.409 306.398 870.328 304.874 873.321 301.772C876.315 298.67 877.784 294.86 877.784 290.288V54.2417C877.784 49.4522 876.26 45.5335 873.321 42.5401C870.273 39.5467 866.409 38.0771 861.62 38.0771Z" fill="white"/>
<path d="M1139.58 53.0443C1139.09 49.0168 1137.45 45.5335 1134.57 42.5401C1131.68 39.5467 1127.87 38.0771 1123.03 38.0771H942.335C937.763 38.0771 933.899 39.4922 930.796 42.3768C927.694 45.2614 926.279 48.7447 926.497 52.8811C926.279 57.0175 927.476 60.3919 930.089 63.0043C932.701 65.6712 936.675 66.9774 941.954 66.9774H1098.27L926.497 280.328C923.993 283.539 922.905 287.131 923.231 291.159C923.558 295.186 925.136 298.724 927.857 301.826C930.633 304.929 934.389 306.453 939.178 306.453H1122.98C1127.76 306.453 1131.68 305.146 1134.68 302.479C1137.67 299.867 1139.14 296.329 1139.14 291.975C1139.14 287.839 1137.62 284.41 1134.68 281.689C1131.68 278.913 1127.82 277.552 1122.98 277.552H963.888L1136.36 63.4942C1138.98 60.5551 1140.01 57.0175 1139.58 53.0443Z" fill="white"/>
<path d="M1398.53 283.757L1299.91 49.0712C1297.14 41.7237 1292.02 38.0771 1284.46 38.0771C1277.38 38.0771 1272.32 41.7237 1269.33 49.0712L1171.09 283.049C1168.58 288.546 1168.8 293.826 1171.8 298.833C1174.79 303.895 1179.25 306.398 1185.18 306.398C1188.39 306.398 1191.39 305.582 1194.11 304.003C1196.89 302.425 1198.9 299.867 1200.31 296.438L1221.16 245.604H1348.3L1368.98 296.438C1370.34 299.649 1372.41 302.098 1375.19 303.84C1377.96 305.582 1380.79 306.398 1383.78 306.398C1389.72 306.398 1394.29 304.003 1397.34 299.159C1400.44 294.37 1400.82 289.254 1398.53 283.757ZM1232.32 218.445L1285 90.1085L1337.25 218.445H1232.32Z" fill="white"/>
</svg>

<svg width="1400" height="341" fill="none" xmlns="http://www.w3.org/2000/svg"><path d="M561.514 154.44c.707 5.769 1.088 11.593 1.034 17.471-.218 35.921-14.423 69.611-40.004 94.81-25.58 25.254-59.433 39.024-95.354 38.752-6.096-.055-12.028-.545-17.906-1.361 11.538-8.109 23.403-17.144 35.377-26.941 22.75-3.538 43.214-14.205 58.889-29.662 15.62-15.403 26.505-35.54 30.37-58.127 10.069-11.756 19.321-23.458 27.594-34.942zM479.112 35.301c11.321 3.756 22.043 9.09 32.003 15.73 14.314-2.94 25.635-1.416 32.384 5.497 8.926 9.034 8.436 25.852.653 46.806-5.606-9.579-12.3-18.668-20.301-26.778-25.254-25.58-58.889-39.785-94.81-40.003-35.922-.218-69.775 13.552-95.355 38.752-25.581 25.253-39.786 58.889-40.003 94.81-.327 48.766 25.525 91.654 64.331 115.492-19.974 6.749-35.921 6.586-44.52-2.068-6.368-6.477-8.001-16.927-5.552-29.989-6.749-10.069-12.137-21.117-16.001-32.873-32.656 50.888-44.738 93.558-27.376 111.138 26.124 26.506 109.723-12.953 193.376-88.878.054 0 .054 0 .109-.054a476.2 476.2 0 0 0 22.151-20.465 415.234 415.234 0 0 0 19.267-20.246c0-.055.054-.109.054-.163 77.993-83.164 119.194-167.143 92.851-193.812-17.579-17.743-61.175-5.77-113.261 27.104zM211.01 38.077c-4.571 0-8.436 1.524-11.538 4.463-3.102 2.993-4.626 6.858-4.626 11.702V156.29H32.329V54.241c0-4.789-1.524-8.708-4.463-11.7-2.993-2.994-6.857-4.464-11.701-4.464-4.572 0-8.436 1.524-11.539 4.463C1.524 45.533 0 49.398 0 54.242v236.046c0 4.572 1.524 8.436 4.626 11.484 3.103 3.102 6.912 4.626 11.539 4.626 4.79 0 8.708-1.524 11.701-4.626 2.994-3.102 4.463-6.912 4.463-11.484V184.81h162.517v105.478c0 4.572 1.524 8.436 4.626 11.484 3.102 3.102 6.912 4.626 11.538 4.626 4.79 0 8.708-1.524 11.702-4.626 2.993-3.102 4.463-6.912 4.463-11.484V54.242c0-4.79-1.47-8.709-4.463-11.702-3.048-2.993-6.912-4.463-11.702-4.463zm529.948 156.911a97.385 97.385 0 0 0 6.422-2.993c13.171-6.858 23.458-16.382 30.914-28.519 7.457-12.137 11.158-26.016 11.158-41.582 0-16.491-3.756-31.023-11.158-43.65-7.456-12.572-17.743-22.423-30.914-29.553-13.171-7.075-28.247-10.668-45.174-10.668h-62.862c-4.572 0-8.436 1.524-11.538 4.463-3.103 2.994-4.626 6.858-4.626 11.702v236.046c0 4.572 1.523 8.436 4.626 11.484 3.102 3.102 6.912 4.626 11.538 4.626 4.79 0 8.708-1.524 11.702-4.626 2.993-3.102 4.463-6.912 4.463-11.484v-87.952h46.697c2.068 0 4.082-.055 6.096-.164l59.869 96.335c1.85 2.775 3.918 4.735 6.204 5.986 2.286 1.252 4.899 1.905 7.892 1.905 6.858 0 11.702-2.558 14.423-7.728 2.776-5.171 2.177-10.831-1.741-16.981l-53.991-86.647zm-38.752-22.913h-46.697V68.339h46.697c10.994 0 20.682 2.231 29.009 6.694 8.328 4.463 14.968 10.777 19.757 18.886 4.79 8.11 7.239 17.471 7.239 27.975 0 9.634-2.395 18.287-7.239 25.961-4.789 7.675-11.375 13.607-19.757 17.852-8.381 4.245-18.015 6.368-29.009 6.368zM861.62 38.077c-4.572 0-8.436 1.524-11.538 4.463-3.103 2.993-4.627 6.858-4.627 11.702v236.046c0 4.572 1.524 8.436 4.627 11.484 3.102 3.102 6.912 4.626 11.538 4.626 4.789 0 8.708-1.524 11.701-4.626 2.994-3.102 4.463-6.912 4.463-11.484V54.242c0-4.79-1.524-8.709-4.463-11.702-3.048-2.993-6.912-4.463-11.701-4.463zm277.96 14.967c-.49-4.027-2.13-7.51-5.01-10.504-2.89-2.993-6.7-4.463-11.54-4.463H942.335c-4.572 0-8.436 1.415-11.539 4.3-3.102 2.884-4.517 6.368-4.299 10.504-.218 4.136.979 7.51 3.592 10.123 2.612 2.667 6.586 3.973 11.865 3.973h156.316L926.497 280.328c-2.504 3.211-3.592 6.803-3.266 10.831.327 4.027 1.905 7.565 4.626 10.667 2.776 3.103 6.532 4.627 11.321 4.627h183.802c4.78 0 8.7-1.307 11.7-3.974 2.99-2.612 4.46-6.15 4.46-10.504 0-4.136-1.52-7.565-4.46-10.286-3-2.776-6.86-4.137-11.7-4.137H963.888L1136.36 63.494c2.62-2.939 3.65-6.477 3.22-10.45zm258.95 230.713l-98.62-234.686c-2.77-7.347-7.89-10.994-15.45-10.994-7.08 0-12.14 3.647-15.13 10.994l-98.24 233.978c-2.51 5.497-2.29 10.777.71 15.784 2.99 5.062 7.45 7.565 13.38 7.565 3.21 0 6.21-.816 8.93-2.395 2.78-1.578 4.79-4.136 6.2-7.565l20.85-50.834h127.14l20.68 50.834c1.36 3.211 3.43 5.66 6.21 7.402 2.77 1.742 5.6 2.558 8.59 2.558 5.94 0 10.51-2.395 13.56-7.239 3.1-4.789 3.48-9.905 1.19-15.402zm-166.21-65.312L1285 90.108l52.25 128.337h-104.93z" fill="#fff"/></svg>
